X:1
T: Bonaparte's Retreat
C:
R:Reel
Q: 232
K:D
M:4/4
L:1/8
|:DC|A,D DE FE DC|DE GA c3d|ed cB cA BG|AG FE FD EC|
A,D DE FE DC|DE GA cB cd|ed cA GE CD|E2D2 D2:|
|:AB|cB cB cd cA|dc de df ed|cB cd cA BG|AG FE FD EC|
cB cB cd cA|dc de de fg|af ge fd ec|Ad ce d2de|
fe fg fe df|ed ef ed cA|df ed cA BG|AG FE FD EC|
A,D DE FE DC|DE GA c3d|ed cB cA BG|AG FE FD EC|
A,D DE FE DC|DE GA cB cd|ed cA GE CD|E2D2 D2:|
